X: 1
T: le Joual du rapide blanc
T: le Rapide du Joual Blanc
T: the White Horse
C: trad. Qu\'ebec
R: reel
S: Fiddle Hell Online 2020-11-06
S: https://www.natunelist.net/le-rapide-du-joual-blanc/
Z: 2020 John Chambers <jc:trillian.mit.edu>
M: C|
L: 1/8
K: Em
"^A"[|] ^D2 |\
"Em"E2EE GGEG | BBGB e2ef | "C"gfeg "D"fedf | edB^c dBAF |
"Em"EEB,E GGEG | BBGB e2ef | "C"gfeg fedf |1 "D"eagf "Em"e2 :|2 "D"eagf "Em"e2 |
"^B"\
|: ef |\
"Em"geBe geBe | "C"gece gece | "D"afdB ABdf | afdB AAef |
"Em"geBe geBe | "C"gece gece | "D"afdB ABdf | "D"afdf "Em"e2 :|
